!!!COM: Haydn, Franz Joseph
!!!OPR: String Quartet in D Major
!!!ONM: Opus 33, No. 6
!!!OTL: Affettuoso 
!!!OMV: 2
!!!SCT: H III:42
!!!SCA: Thematisch-bibliographisches Werkevererzeichnis (A. van Hoboken)
!!!YOR: Richault Edition, volume 8
!!!EED: Frances Bennion
!!!ENC: Frances Bennion
!!!CDT: 1732/3/31/-1809/5/31/
!!!OCY: Österreich
!!!YEC: Copyright (c) 1994, 2000 Center for Computer Assisted Research in the Humanities
!!!YEM: Rights to all derivative editions reserved.
!!!YEM: Refer to licensing agreement for further details.
!!!YEN: United States of America
**kern	**kern	**kern	**kern
*k[b-]	*k[b-]	*k[b-]	*k[b-]
*d:	*d:	*d:	*d:
*clefF	*clefF	*clefC3	*clefF4
*M4/4	*M4/4	*M4/4	*M4/4
*tb32	*tb32	*tb32	*tb32
=1	=1	=1	=1
[1aa	8r	8r	4D
.	8dd	8f	.
.	8dd	8f	4r
.	8dd	8f	.
.	8dd	8f	4d
.	8ff	8a	.
.	8ee	8g	4r
.	8dd	8f	.
=2	=2	=2	=2
1aa_	4..dd	[2g	[2e
.	32ee	.	.
.	32dd	.	.
.	8cc#	8g]	8e]
.	8cc#	8g	8e
.	16cc#	8g	8e
.	16dd	.	.
.	16dd	8f	8d
.	16ee	.	.
=3	=3	=3	=3
1aa_	8ee	8e	4c#
.	8ee	8g	.
.	8ee	8g	4r
.	8ee	8g	.
.	8ee	8g	4c#
.	8gg	8b-	.
.	8ff	8a	4r
.	8ee	8g	.
=4	=4	=4	=4
1aa_	4..ee	4..g	2d
.	32ff	32a	.
.	32ee	32g	.
.	8dd	8f	2D
.	8dd	8f	.
.	16.dd	16.f	.
.	32ff	32a	.
.	16.ee	16.g	.
.	32gg	32b-	.
=5	=5	=5	=5
2aa_	8ff	8a	2d
.	8ff	8a	.
.	8ff	8a	.
.	8ff	8a	.
8aa]	8r	8r	2c
8aa]	8ee-	8f#	.
8aa	8ee-	8f#	.
8aa	8ee-	8f#	.
=6	=6	=6	=6
[2aa	2ee-	2f#	1B-
16aa]	2dd	2g	.
16ddd	.	.	.
16ccc	.	.	.
16bb-	.	.	.
16aa	.	.	.
16gg	.	.	.
16ff#	.	.	.
16gg	.	.	.
=7	=7	=7	=7
8r	1d	1g#	1B
8ff	.	.	.
8ff	.	.	.
8ff	.	.	.
8.ff	.	.	.
32gg	.	.	.
32ff	.	.	.
8ee	.	.	.
8dd	.	.	.
=8	=8	=8	=8
4..dd	2f	2a	1A
32ee	.	.	.
32dd	.	.	.
16.cc#	8e	8g	.
32dd	.	.	.
16.b	8d	8f	.
32cc#	.	.	.
16.a	8c#	8e	.
32b	.	.	.
16.g#	8d	8f	.
32b	.	.	.
=9	=9	=9	=9
4..a	4..c#	4..e	1A
16g#	16d	16f	.
8.a	8.c#	8.e	.
16g#	16d	16f	.
16.a	16.c#	16.e	.
32g#	32d	32f	.
16.a	16.c#	16.e	.
32g#	32d	32f	.
=10	=10	=10	=10
[4..a	2c#	2e	2A
32a]	.	.	.
32b-	.	.	.
4..b-	2c	2e	2G
32a	.	.	.
32b-	.	.	.
=11	=11	=11	=11
[2cc	8A	8f 8A	4F
.	8a	8f	.
.	8a	8f	4r
.	8a	8f	.
16cc]	8r	8r	4F
16aa	.	.	.
16gg	8cc	8a	.
16ff	.	.	.
16ee	8b-	8g	4r
16ff	.	.	.
16ee	8a	8f	.
16ff	.	.	.
=12	=12	=12	=12
4..ff	8r	8r	4C
.	8b-	8g	.
.	8b-	8g	4r
.	8b-	8g	.
32gg	.	.	.
32ff	.	.	.
8ee	8r	8r	4C
8ee	8b-	8g	.
16.ee	8b-	8g	4r
32gg	.	.	.
16.ff	8a	8f	.
32aa	.	.	.
=13	=13	=13	=13
[2gg	8g	8e	4C
.	8b-	8e	.
.	8b-	8e	4r
.	8b-	8e	.
16gg]	8r	8r	4C
16ee	.	.	.
16bb-	8b-	8e	.
16gg	.	.	.
8.ddd	8b-	8e	4r
.	8b-	8e	.
16ccc	.	.	.
=14	=14	=14	=14
4.ccc	8r	8r	4F
.	8b-	8e	.
.	8b-	8e	4r
8bb-	8g	8e	.
4aa	8r	8r	4F
.	8a	8f	.
4ccc	8a	8f	4r
.	8a	8f	.
=15	=15	=15	=15
2fff	8r	8r	4A
.	8cc	8f	.
.	8cc	8f	4r
.	8cc	8f	.
16fff	8r	8r	4A
16eee	.	.	.
16fff	8cc	8f	.
16eee	.	.	.
16fff	8cc	8f	4r
16eee	.	.	.
16ddd	8ff	8f	.
16ccc#	.	.	.
=16	=16	=16	=16
[2ddd	8r	8r	4B-
.	8dd	8f	.
.	8dd	8f	4r
.	8dd	8f	.
16ddd]	8r	8r	4B-
16ccc#	.	.	.
16ddd	8dd	8f#	.
16aa	.	.	.
16bb-	8dd	8f#	4r
16aa	.	.	.
16bb-	8dd	8f#	.
16ff#	.	.	.
=17	=17	=17	=17
[4gg	8r	8r	4B-
.	8dd	8g	.
16gg]	8dd	8g	4r
16aa	.	.	.
16bb-	8dd	8g	.
16ccc	.	.	.
8ddd	8r	8r	8B-
8eee	8b-	8g	8r
8fff	8r	8r	8B
16aa	8a	8f	8r
16ff	.	.	.
=18	=18	=18	=18
[1ccc	8g	8e	4c
.	8ee	8g	.
.	8ee	8g	4r
.	8ee	8g	.
.	8ee	8g	4c
.	8gg	8b-	.
.	8ff	8a	4r
.	8ee	8g	.
=19	=19	=19	=19
1ccc_	8r	8r	4c
.	8ff	8a	.
.	8ff	8a	4r
.	8ff	8a	.
.	8ff	8a	4c
.	8aa	8cc	.
.	8gg	8b-	4r
.	8ff#	8a	.
=20	=20	=20	=20
1ccc_	8r	8r	1e
.	8gg	8b-	.
.	8gg	8b-	.
.	8gg	8b-	.
.	8gg	8b-	.
.	8bb-	8dd	.
.	8aa	8cc	.
.	8gg	8b-	.
=21	=21	=21	=21
8ccc]	1aa	8a	1f
8eee-	.	8cc	.
8eee-	.	8cc	.
8eee-	.	8cc	.
8eee-	.	8cc	.
8ggg	.	8ee-	.
8fff	.	8dd	.
8eee-	.	8cc	.
=22	=22	=22	=22
[4ddd	8bb-	8b-	4B-
.	8ff	8dd	.
16ddd]	8ff	8dd	4r
16ccc#	.	.	.
16ddd	8ff	8dd	.
16ccc#	.	.	.
16ddd	8r	8r	4B-
16eee	.	.	.
16fff	8dd	8b-	.
16ccc#	.	.	.
16ddd	8dd	8b-	4r
16aa	.	.	.
16bb-	8dd	8b-	.
16gg	.	.	.
=23	=23	=23	=23
[4ff	8cc	8a	4c
.	8ff	8a	.
16ff]	8ff	8a	4r
16ccc	.	.	.
16bb-	8ff	8a	.
16aa	.	.	.
2gg	8r	8r	4C
.	8ee	8b-	.
.	8ee	8b-	4r
.	8ee	8b-	.
=24	=24	=24	=24
[1ff	4ff	8a	4F
.	.	8f	.
.	2.r	8f	4r
.	.	8f	.
.	.	8f	4F
.	.	8a	.
.	.	8g	4r
.	.	8f	.
=25	=25	=25	=25
2ff]	8r	1g	1c
.	8b-	.	.
.	8b-	.	.
.	8b-	.	.
2ee	8b-	.	.
.	8dd	.	.
.	8cc	.	.
.	8b-	.	.
=26	=26	=26	=26
[2ee-	2b-	8r	1f
.	.	8cc	.
.	.	8cc	.
.	.	8cc	.
8ee-]	2a	8cc	.
8gg	.	8ee-	.
8ff	.	8dd	.
8ee-	.	8cc	.
=27	=27	=27	=27
2ee-	2.a	[1cc	8r
.	.	.	8f#
.	.	.	8f#
.	.	.	8f#
[2dd	.	.	8f#
.	.	.	8a
.	[4dd	.	8g
.	.	.	8f#
=28	=28	=28	=28
8dd]	2dd]	2cc]	1g
8gg	.	.	.
8gg	.	.	.
8gg	.	.	.
8gg	2ee-	2b-	.
8bb-	.	.	.
8gg	.	.	.
8ee-	.	.	.
=29	=29	=29	=29
2dd	2b-	8r	8r
.	.	8g	8e
.	.	8g	8e
.	.	8g	8e
2cc#	8b-	8g	8e
.	8e	8b-	8g
.	8f	8a	8f
.	8g	8g	8e
=30	=30	=30	=30
8r	2a	2g	1d
8dd	.	.	.
8dd	.	.	.
8dd	.	.	.
8dd	2g#	2f	.
8ff	.	.	.
8ee	.	.	.
8dd	.	.	.
=31	=31	=31	=31
[1aa	8r	8r	2A
.	8e	8c#	.
.	8e	8c#	.
.	8e	8c#	.
.	8e	8c#	2r
.	8b-	8g	.
.	8a	8f	.
.	8g	8e	.
=32	=32	=32	=32
1aa_	8f	8d	4d
.	8dd	8f	.
.	8dd	8f	4r
.	8dd	8f	.
.	8dd	8f	4d
.	8ff	8a	.
.	8ee	8g	4r
.	8dd	8f	.
=33	=33	=33	=33
1aa_	4..dd	[2g	[2e
.	32ee	.	.
.	32dd	.	.
.	8cc#	8g]	8e]
.	8cc#	8g	8e
.	16cc#	8g	8e
.	16dd	.	.
.	16dd	8f	8d
.	16ee	.	.
=34	=34	=34	=34
1aa_	8ee	8e	4c#
.	8ee	8g	.
.	8ee	8g	4r
.	8ee	8g	.
.	8ee	8g	4c#
.	8gg	8b-	.
.	8ff	8a	4r
.	8ee	8g	.
=35	=35	=35	=35
1aa_	4..ee	4..g	1d
.	32ff	32a	.
.	32ee	32g	.
.	8dd	8f	.
.	8dd	8f	.
.	16.dd	16.f	.
.	32ff	32a	.
.	16.ee	16.g	.
.	32gg	32b-	.
=36	=36	=36	=36
2aa_	8ff	8a	2d
.	8ff	8a	.
.	8ff	8a	.
.	8ff	8a	.
8aa]	8r	8r	2c
8aa]	8ee-	8f#	.
8aa	8ee-	8f#	.
8aa	8ee-	8f#	.
=37	=37	=37	=37
[2aa	2ee-	2f#	1B-
16aa]	2dd	2g	.
16ddd	.	.	.
16ccc	.	.	.
16bb-	.	.	.
16aa	.	.	.
16gg	.	.	.
16ff#	.	.	.
16gg	.	.	.
=38	=38	=38	=38
8r	1d	1g#	1B
8ff	.	.	.
8ff	.	.	.
8ff	.	.	.
8.ff	.	.	.
32gg	.	.	.
32ff	.	.	.
8ee	.	.	.
8dd	.	.	.
=39	=39	=39	=39
4..dd	2f	2a	[1A
32ee	.	.	.
32dd	.	.	.
16.cc#	8e	8g	.
32dd	.	.	.
16.b	8d	8f	.
32cc#	.	.	.
16.a	8c#	8e	.
32b	.	.	.
16.g#	8d	8f	.
32b	.	.	.
=40	=40	=40	=40
4..a	8c#	8e	2A]
.	8c#	8e	.
.	8c#	8e	.
.	8c#	8e	.
16g#	.	.	.
8.a	8c#	8e	2G
.	8c#	8e	.
16g#	.	.	.
16.a	8c#	8e	.
32g#	.	.	.
16.a	8c#	8e	.
32g#	.	.	.
=41	=41	=41	=41
4..a	8c	8e	1F#
.	8c	8e	.
.	8c	8e	.
.	8c	8e	.
16g#	.	.	.
16.a	8c	8d	.
32g#	.	.	.
16.a	8c	8d	.
32g#	.	.	.
16.a	8a	8d	.
32b-	.	.	.
16.cc	8a	8d	.
32cc	.	.	.
=42	=42	=42	=42
2cc	2a	1d	4G
.	.	.	16.G
.	.	.	32F#
.	.	.	16.G
.	.	.	32F#
2b-	[2g	.	16.G
.	.	.	32A
.	.	.	16.B-
.	.	.	32A
.	.	.	16.G
.	.	.	32F
.	.	.	16.E
.	.	.	32D
=43	=43	=43	=43
16.a	2g]	2e	2C#
32b	.	.	.
16.cc#	.	.	.
32dd	.	.	.
16.ee	.	.	.
32ff	.	.	.
16.gg	.	.	.
32ee	.	.	.
[2ff	2f	[2d	16.D
.	.	.	32E
.	.	.	16.F
.	.	.	32E
.	.	.	16.D
.	.	.	32C
.	.	.	16.BB-
.	.	.	32AA
=44	=44	=44	=44
8ff]	8f	4d]	[2GG#
8ddd	8ff	.	.
8ddd	8ff	4.r	.
8ddd	8ff	.	.
8ddd	8ff	.	8GG#]
8ff	8dd	8d	8GG#
8ff	8dd	8f	8GG#
8ff	8dd	8d	8GG#
=45	=45	=45	=45
2ff	4dd	4A	1AA
.	4r	4r	.
2ee	2cc#	2g	.
=46	=46	=46	=46
[1dd	8r	8r	4D
.	8a	8f#	.
.	8a	8f#	4r
.	8a	8f#	.
.	8a	8f#	4D
.	8cc	8a	.
.	8b-	8g	4r
.	8a	8f#	.
=47	=47	=47	=47
1dd_	8r	8r	4D
.	8g	8B-	.
.	8g	8B-	4r
.	8g	8B-	.
.	8g	8B-	4D
.	8b-	8d	.
.	8a	8c	4r
.	8g	8B-	.
=48	=48	=48	=48
4..dd]	4..f#	4..A	1DD
16cc#	16g	16B-	.
8.dd	8.f#	8.A	.
16cc#	16g	16B-	.
8.dd	8.f#	8.A	.
16cc#	16g	16B-	.
=49	=49	=49	=49
[1dd	[1f#	[1A	4..DD
.	.	.	16CC#
.	.	.	8.DD
.	.	.	16CC#
.	.	.	8.DD
.	.	.	16CC#
=50	=50	=50	=50
1dd]	1f#]	1A]	1DD
==	==	==	==
*-	*-	*-	*-
!!!RWG1: This file contains only pitch and duration data.
!!!RWG2: Transposing instruments are not transposed.
!!!RWG3: Spines may have incompatible meters.
!!!RWG4: Durations of rests and tied notes may be interpreted.
!!!RWG: Key is interpreted using the Humdrum key tool.
!!!GTL: 6 Quators ("Jungfernquartette")
!!!AFT: stage1
!!!END: 1997/04/15
!!format changes:
!!content changes:
!!public access: complete
!!!KEY: 3239588781
!!!EMD: Converted from MuseData to Humdrum Dec 16, 2000, by Andreas Kornstaedt using muse2kern.
